lib/logo_tmp/nrk-logo-nrk-radio-on-dark.svg

<svg width="96" height="16" viewBox="0 0 96 16" fill="none" xmlns="http://www.w3.org/2000/svg">
<path d="M0 15.0001V1.00135H4.59339V15.0001H0ZM10.8428 3.22932L13.4844 15.0001H8.45737L5.30307 1.00135H8.12254C8.76907 0.992962 9.39641 1.22087 9.88691 1.6422C10.3782 2.04586 10.7158 2.60623 10.8428 3.22932ZM14.1744 15.0001V1.00135H18.7678V15.0001H14.1744ZM22.2372 6.32486C21.7422 6.32969 21.2552 6.20018 20.828 5.95021C20.4064 5.70655 20.0563 5.35637 19.8127 4.93478C19.5624 4.50747 19.4329 4.0203 19.4378 3.52512C19.4321 3.03295 19.5618 2.54869 19.8127 2.12525C20.0589 1.70824 20.4086 1.36186 20.828 1.11969C21.2553 0.870001 21.7423 0.740515 22.2372 0.745029C22.7292 0.73973 23.2133 0.869332 23.6369 1.11969C24.0521 1.36398 24.3981 1.71007 24.6424 2.12525C24.893 2.54881 25.0226 3.03299 25.0172 3.52512C25.0218 4.02026 24.8923 4.50735 24.6424 4.93478C24.4007 5.35452 24.0542 5.70441 23.6369 5.95021C23.2133 6.20105 22.7289 6.33069 22.2366 6.32486H22.2372ZM25.7269 15.0001V1.00135H30.3207V15.0001H25.7269ZM36.136 8.65135C36.1489 8.66494 36.2475 8.82594 36.4317 9.1344C36.6159 9.44285 36.8558 9.83721 37.1513 10.3174C37.447 10.7974 37.759 11.3067 38.0874 11.8454C38.4157 12.3841 38.7247 12.8935 39.0143 13.3735C39.3028 13.8535 39.6313 14.3957 40 15.0001H34.9531C34.6375 14.4875 34.3515 14.0241 34.0952 13.6101C33.8389 13.196 33.5665 12.7491 33.2778 12.2693C32.9884 11.79 32.7024 11.3234 32.4196 10.8695C32.1368 10.4155 31.8938 10.018 31.6905 9.67665C31.4863 9.33512 31.3449 9.10506 31.2663 8.98654C31.0713 8.69243 30.9559 8.35276 30.9315 8.00072C30.951 7.66284 31.0597 7.33622 31.2466 7.05404C31.3254 6.9226 31.47 6.68925 31.6803 6.35407C31.8906 6.01889 32.137 5.62131 32.4196 5.16126C32.7021 4.70121 32.9882 4.23129 33.2778 3.75152C33.5674 3.27175 33.8398 2.82152 34.0952 2.4009C34.3519 1.98072 34.6379 1.5141 34.9531 1.00103H40L36.0962 7.36949C35.9754 7.55857 35.9073 7.77648 35.8991 8.00072C35.9121 8.23612 35.9942 8.46245 36.1353 8.65135H36.136Z" fill="white"/>
<path d="M52.1971 9.21473C52.4594 9.1746 52.7182 9.11418 52.9711 9.03404C53.4837 8.87458 53.9571 8.60939 54.3607 8.25552C54.7627 7.8965 55.0792 7.45201 55.287 6.95466C55.5206 6.38265 55.6346 5.7689 55.6221 5.15117C55.6309 4.43059 55.4795 3.71701 55.1787 3.06216C54.8679 2.41528 54.3562 1.88629 53.72 1.55406C52.8713 1.1418 51.9328 0.948611 50.9902 0.992246H45.3334V14.9866H47.3832V9.62536H50.3986L53.8876 14.9866H56.2919L53.02 10.1382L52.1971 9.21473ZM52.232 2.97314C52.6402 3.12875 52.9815 3.42154 53.1974 3.8013C53.4232 4.24264 53.5318 4.73463 53.5128 5.23001C53.5374 5.77831 53.4041 6.32217 53.1288 6.79698C52.8681 7.20131 52.4795 7.50661 52.025 7.6642C51.4768 7.85269 50.8996 7.9428 50.3201 7.93031H47.3832V2.70703H50.5562C51.1267 2.68805 51.6955 2.77838 52.232 2.97314Z" fill="#8BB5EB"/>
<path d="M66.9158 13.7451C66.7717 13.7584 66.6265 13.7366 66.4927 13.6816C66.3588 13.6266 66.2403 13.5401 66.1471 13.4295C65.9642 13.1137 65.8882 12.7473 65.9303 12.3848L65.9697 8.32481C65.974 7.89904 65.921 7.4746 65.812 7.063C65.7161 6.70217 65.5559 6.36169 65.339 6.05783C65.1196 5.76086 64.8411 5.51256 64.521 5.32856C64.149 5.11738 63.7468 4.96455 63.3285 4.87551C62.817 4.76499 62.2947 4.71211 61.7714 4.71783C61.3562 4.71755 60.9414 4.74378 60.5296 4.79635C60.1405 4.84529 59.7552 4.92101 59.3766 5.023C59.0254 5.1184 58.6799 5.23368 58.3418 5.36826L58.1053 7.04367C58.4338 6.92541 58.746 6.82681 59.0419 6.74797C59.3377 6.66913 59.6234 6.60347 59.8989 6.55091C60.1693 6.49918 60.4424 6.46306 60.7169 6.4428C60.986 6.42265 61.2521 6.41267 61.5151 6.41289C61.917 6.40441 62.3183 6.45089 62.7076 6.55091C62.9917 6.62203 63.2529 6.7645 63.4665 6.96483C63.6566 7.15975 63.7925 7.40092 63.8607 7.66451C63.9448 7.98957 63.9845 8.3245 63.9789 8.66021L63.9767 9.15465L61.6728 9.31064C60.8848 9.33267 60.1085 9.50659 59.3864 9.82281C58.8461 10.0593 58.3797 10.4372 58.0363 10.9168C57.745 11.3435 57.5903 11.8487 57.5928 12.3654C57.5891 12.8503 57.7078 13.3282 57.9377 13.755C58.1788 14.1935 58.5416 14.5529 58.9824 14.7898C59.5201 15.0695 60.121 15.2053 60.7267 15.184C61.2943 15.1971 61.8593 15.1035 62.3923 14.9081C62.8532 14.7278 63.2749 14.4601 63.634 14.1197C63.7703 13.9888 63.8997 13.851 64.0217 13.7067C64.06 13.9107 64.1322 14.107 64.2352 14.2872C64.4107 14.5891 64.6809 14.8245 65.0039 14.9573C65.3608 15.1007 65.7428 15.1711 66.1273 15.1643C66.2456 15.1643 66.3606 15.161 66.4723 15.1544C66.582 15.1481 66.6909 15.1317 66.7975 15.1052C66.9026 15.0789 66.9976 15.0558 67.0833 15.0361C67.1605 15.0189 67.2363 14.9959 67.31 14.9672L67.5268 13.6466C67.418 13.684 67.3057 13.7104 67.1917 13.7254C67.1002 13.7378 67.0081 13.7444 66.9158 13.7451ZM63.634 12.8582C63.4204 13.0272 63.1891 13.1726 62.9442 13.2918C62.7004 13.4106 62.442 13.4967 62.1757 13.5481C61.8996 13.6014 61.619 13.6278 61.3378 13.6269C61.0166 13.6361 60.6971 13.5755 60.4015 13.4495C60.161 13.3452 59.9581 13.1698 59.8201 12.9469C59.6836 12.7106 59.6153 12.4411 59.6229 12.1683C59.6039 11.8397 59.694 11.5141 59.8792 11.242C60.0939 10.9917 60.3846 10.8186 60.707 10.7492C61.2107 10.6307 61.7276 10.5777 62.2448 10.5915H63.9704L63.9615 12.548C63.8614 12.6605 63.7519 12.7645 63.634 12.8582Z" fill="#8BB5EB"/>
<path d="M76.2397 5.19613C76.2196 5.18825 76.2009 5.17867 76.1806 5.17079C75.8121 5.03205 75.4331 4.92329 75.0472 4.84557C74.5961 4.75672 74.1372 4.71393 73.6774 4.71781C72.8162 4.71253 71.9692 4.93706 71.2238 5.36824C70.4542 5.81571 69.8233 6.46712 69.4006 7.25057C68.9154 8.17619 68.6777 9.21157 68.7107 10.2561C68.6881 11.1579 68.8665 12.0533 69.233 12.8776C69.5529 13.5816 70.0743 14.1749 70.7313 14.5825C71.4378 14.9984 72.2472 15.2068 73.0667 15.1837C73.5694 15.1867 74.0702 15.1204 74.5548 14.9866C75.0378 14.848 75.4989 14.6423 75.9246 14.3755C76.0721 14.2845 76.2203 14.1824 76.3675 14.0756L76.6148 14.9866H78.2505V0.125L76.24 0.400973L76.2397 5.19613ZM75.1852 13.3013C74.7358 13.4784 74.2588 13.5753 73.7759 13.5874C73.2126 13.6038 72.6551 13.4712 72.1597 13.2028C71.6987 12.9303 71.339 12.5151 71.1348 12.0201C70.879 11.385 70.7582 10.7036 70.78 10.0192C70.7569 9.31825 70.8916 8.6211 71.1741 7.9792C71.4149 7.45835 71.8107 7.02463 72.3075 6.73744C72.848 6.44323 73.4567 6.29703 74.0719 6.31366C74.3884 6.31293 74.7045 6.33606 75.0176 6.38271C75.3284 6.4308 75.6349 6.50337 75.9342 6.59982C76.0304 6.63037 76.1365 6.67112 76.2397 6.70857V12.7833C75.9043 12.9877 75.5511 13.1611 75.1842 13.3013H75.1852Z" fill="#8BB5EB"/>
<path d="M81.324 14.9866H83.3345V4.73722L81.324 5.03284V14.9866Z" fill="#8BB5EB"/>
<path d="M83.0486 0.607892C82.844 0.482854 82.6084 0.417939 82.3686 0.420622C82.1258 0.41872 81.8873 0.483511 81.6788 0.607892C81.4732 0.728274 81.3006 0.897533 81.1762 1.10065C81.0512 1.30526 80.9863 1.54093 80.9889 1.78068C80.9869 2.02344 81.0517 2.26203 81.1762 2.47049C81.2966 2.67678 81.4701 2.84696 81.6788 2.96325C81.8893 3.08164 82.1271 3.14281 82.3686 3.14065C82.6071 3.14357 82.842 3.08229 83.0486 2.96325C83.2515 2.84607 83.4185 2.67568 83.5315 2.47049C83.65 2.26003 83.7112 2.02219 83.7089 1.78068C83.7118 1.54221 83.6505 1.30733 83.5315 1.10065C83.4144 0.89849 83.2484 0.729037 83.0486 0.607892Z" fill="#8BB5EB"/>
<path d="M95.318 7.13206C94.9252 6.37851 94.3184 5.75785 93.5739 5.34823C92.7526 4.91208 91.8328 4.69499 90.9032 4.71784C89.9649 4.69632 89.0372 4.92055 88.2124 5.36828C87.451 5.79435 86.8283 6.43062 86.4187 7.20104C85.9739 8.06553 85.7537 9.028 85.7782 9.9999C85.753 10.9642 85.9592 11.9206 86.3794 12.7889C86.7569 13.547 87.3592 14.17 88.104 14.573C88.9058 14.9929 89.8008 15.2031 90.7057 15.1837C91.6531 15.2026 92.5895 14.9786 93.4258 14.5332C94.2068 14.1073 94.8471 13.4637 95.269 12.6805C95.7266 11.8059 95.9539 10.8291 95.9293 9.84223C95.9516 8.9023 95.7417 7.97138 95.318 7.13206ZM93.4553 11.9512C93.234 12.4634 92.8587 12.894 92.3815 13.1831C91.9019 13.4576 91.3571 13.5973 90.8046 13.5875C90.2629 13.6009 89.7288 13.457 89.2672 13.1732C88.8104 12.8697 88.4539 12.4377 88.2423 11.9318C87.9741 11.2825 87.8466 10.5838 87.8681 9.88161C87.8448 9.19857 87.9725 8.51879 88.2423 7.89085C88.4634 7.39736 88.8317 6.98435 89.2968 6.70828C89.7941 6.43458 90.3554 6.29852 90.9228 6.31409C91.3658 6.30303 91.8061 6.38704 92.2139 6.56047C92.5711 6.72162 92.8827 6.96878 93.1209 7.27988C93.3749 7.61812 93.559 8.00346 93.6626 8.41352C93.7859 8.89298 93.8455 9.38658 93.84 9.88161C93.863 10.5912 93.7317 11.2973 93.4553 11.9512Z" fill="#8BB5EB"/>
</svg>

<svg xmlns="http://www.w3.org/2000/svg" viewBox="0 0 96 16"><path fill="#fff" d="M0 15V1.001h4.593v14H0ZM10.843 3.23 13.484 15H8.457L5.303 1.001h2.82a2.655 2.655 0 0 1 1.764.641c.491.404.829.964.956 1.587ZM14.174 15V1.001h4.594v14h-4.594Zm8.063-8.675a2.737 2.737 0 0 1-1.409-.375 2.778 2.778 0 0 1-1.015-1.015 2.735 2.735 0 0 1-.375-1.41 2.685 2.685 0 0 1 .375-1.4 2.812 2.812 0 0 1 3.824-1.005c.415.244.761.59 1.005 1.005.251.424.38.908.375 1.4.005.495-.125.982-.375 1.41a2.8 2.8 0 0 1-1.005 1.015c-.424.251-.908.38-1.4.375ZM25.727 15V1.001h4.594v14h-4.594Zm10.409-6.349c.013.014.111.175.296.483.184.309.424.703.72 1.183a384.573 384.573 0 0 1 1.862 3.056c.289.48.617 1.023.986 1.627h-5.047l-.858-1.39c-.256-.414-.529-.86-.817-1.34-.29-.48-.576-.947-.858-1.4a71.337 71.337 0 0 1-.73-1.193 21.112 21.112 0 0 0-.424-.69A2.04 2.04 0 0 1 30.932 8c.019-.338.128-.665.315-.947.078-.131.223-.365.433-.7a216.7 216.7 0 0 0 1.598-2.603l.817-1.35.858-1.4H40l-3.904 6.368c-.12.19-.189.407-.197.632.013.235.095.461.236.65h.001Z"/><path fill="#8BB5EB" d="M52.197 9.215c.262-.04.521-.1.774-.181.513-.16.986-.425 1.39-.778a3.61 3.61 0 0 0 .926-1.301 4.528 4.528 0 0 0 .335-1.804 4.862 4.862 0 0 0-.443-2.089 3.327 3.327 0 0 0-1.459-1.508 5.65 5.65 0 0 0-2.73-.562h-5.657v13.995h2.05V9.625H50.4l3.489 5.362h2.404l-3.272-4.849-.823-.923Zm.035-6.242c.408.156.75.449.965.828.226.442.335.934.316 1.429a2.868 2.868 0 0 1-.384 1.567c-.26.404-.65.71-1.104.867a4.918 4.918 0 0 1-1.705.266h-2.937V2.707h3.173c.57-.019 1.14.071 1.676.266ZM66.916 13.745a.896.896 0 0 1-.769-.315 1.694 1.694 0 0 1-.217-1.045l.04-4.06a4.742 4.742 0 0 0-.158-1.262 3.1 3.1 0 0 0-.473-1.005 2.674 2.674 0 0 0-.818-.73 4.177 4.177 0 0 0-1.193-.452 7.01 7.01 0 0 0-1.557-.158c-.415 0-.83.026-1.241.078-.39.05-.775.125-1.153.227a9.61 9.61 0 0 0-1.035.345l-.237 1.676A11.57 11.57 0 0 1 59.9 6.55c.27-.052.543-.088.818-.108.269-.02.535-.03.798-.03.402-.009.803.038 1.193.138.284.071.545.213.759.414.19.195.325.436.394.7.084.325.123.66.118.995l-.002.495-2.304.156a6.127 6.127 0 0 0-2.287.512 3.276 3.276 0 0 0-1.35 1.094 2.547 2.547 0 0 0-.443 1.448c-.004.485.115.963.345 1.39.24.438.604.798 1.044 1.035.538.28 1.139.415 1.745.394a4.535 4.535 0 0 0 1.665-.276c.461-.18.883-.448 1.242-.788.136-.131.266-.269.388-.413.038.204.11.4.213.58.176.302.446.537.769.67.357.144.739.214 1.123.207.119 0 .234-.003.345-.01.11-.006.219-.022.326-.049.105-.026.2-.05.285-.069.078-.017.153-.04.227-.069l.217-1.32a1.722 1.722 0 0 1-.335.078 2.177 2.177 0 0 1-.276.02Zm-3.282-.887a3.773 3.773 0 0 1-.69.434 3.092 3.092 0 0 1-.768.256c-.276.053-.557.08-.838.079-.321.01-.64-.052-.937-.178a1.285 1.285 0 0 1-.58-.502 1.474 1.474 0 0 1-.198-.779 1.493 1.493 0 0 1 .256-.926c.215-.25.506-.423.828-.493a6.015 6.015 0 0 1 1.538-.158h1.725l-.008 1.957c-.1.113-.21.216-.328.31ZM76.24 5.196l-.06-.025a6.791 6.791 0 0 0-2.503-.453 4.84 4.84 0 0 0-2.453.65A4.83 4.83 0 0 0 69.4 7.251a6.062 6.062 0 0 0-.69 3.005 6.077 6.077 0 0 0 .522 2.622 3.91 3.91 0 0 0 1.498 1.704 4.361 4.361 0 0 0 2.336.602 5.469 5.469 0 0 0 1.488-.197 5.367 5.367 0 0 0 1.37-.611c.147-.091.295-.194.443-.3l.247.91h1.636V.126L76.24.401v4.795Zm-1.055 8.105c-.45.177-.926.274-1.41.286a3.197 3.197 0 0 1-1.615-.384 2.466 2.466 0 0 1-1.025-1.183 4.935 4.935 0 0 1-.355-2c-.023-.702.112-1.399.394-2.04.24-.522.637-.955 1.133-1.243.541-.294 1.15-.44 1.765-.423a5.96 5.96 0 0 1 1.862.286c.096.03.203.071.306.109v6.074a6.457 6.457 0 0 1-1.056.518h.001ZM81.324 14.987h2.01V4.737l-2.01.296v9.954ZM83.049.608a1.276 1.276 0 0 0-.68-.187 1.326 1.326 0 0 0-.69.187c-.206.12-.378.29-.503.493-.125.204-.19.44-.187.68-.002.242.063.481.187.69.12.206.294.376.503.492.21.119.448.18.69.178a1.33 1.33 0 0 0 .68-.178c.202-.117.37-.287.482-.493.119-.21.18-.448.178-.69a1.33 1.33 0 0 0-.178-.68 1.392 1.392 0 0 0-.482-.492ZM95.318 7.132a4.31 4.31 0 0 0-1.744-1.784 5.41 5.41 0 0 0-2.67-.63 5.382 5.382 0 0 0-2.692.65 4.545 4.545 0 0 0-1.793 1.833 5.798 5.798 0 0 0-.64 2.799 6.04 6.04 0 0 0 .6 2.789c.378.758.98 1.381 1.725 1.784a5.36 5.36 0 0 0 2.602.61 5.551 5.551 0 0 0 2.72-.65 4.59 4.59 0 0 0 1.843-1.852 5.81 5.81 0 0 0 .66-2.839 5.713 5.713 0 0 0-.611-2.71Zm-1.863 4.82a2.686 2.686 0 0 1-1.073 1.231 3.065 3.065 0 0 1-1.577.405 2.803 2.803 0 0 1-1.538-.415 2.777 2.777 0 0 1-1.025-1.241 4.971 4.971 0 0 1-.374-2.05 4.642 4.642 0 0 1 .374-1.991c.221-.494.59-.907 1.055-1.183a3.19 3.19 0 0 1 1.626-.394c.443-.011.883.073 1.29.246.358.162.67.409.908.72.254.338.438.723.542 1.134.123.479.183.973.177 1.468a4.907 4.907 0 0 1-.385 2.07Z"/></svg>
